unum/images/unum-reversed-logo.svg

<?xml version="1.0" encoding="UTF-8"?>
<svg width="149px" height="48px" viewBox="0 0 149 48" version="1.1" xmlns="http://www.w3.org/2000/svg" xmlns:xlink="http://www.w3.org/1999/xlink">
    <!-- Generator: Sketch 43.2 (39069) - http://www.bohemiancoding.com/sketch -->
    <title>reversed-logo</title>
    <desc>Created with Sketch.</desc>
    <defs>
        <polygon id="path-1" points="5.10212787e-20 0.571294118 5.10212787e-20 29.1764706 14.5098824 29.1764706 29.0197647 29.1764706 29.0197647 0.571294118 0 0.571294118"></polygon>
    </defs>
    <g id="Pages" stroke="none" stroke-width="1" fill="none" fill-rule="evenodd">
        <g id="Web" transform="translate(-438.000000, -1401.000000)">
            <g id="Logo" transform="translate(370.000000, 566.000000)">
                <g id="with-tagline" transform="translate(7.000000, 712.000000)">
                    <g id="reversed-logo" transform="translate(61.000000, 123.000000)">
                        <path d="M79.3874824,47.2281412 C91.2256,47.2281412 93.8928941,39.5142588 93.8928941,34.2182588 L93.8928941,18.6229647 L85.1653647,18.6229647 L85.1653647,33.6234353 C85.1653647,37.7363765 82.8594824,39.5340235 79.3874824,39.5340235 C75.9070118,39.5340235 73.6039529,37.7363765 73.6039529,33.6234353 L73.6039529,18.6229647 L64.8764235,18.6229647 L64.8764235,34.2182588 C64.8764235,39.5142588 67.5418353,47.2281412 79.3874824,47.2281412" id="Fill-1" fill="#FFFFFF"></path>
                        <g id="Group-5" transform="translate(0.000000, 18.051671)">
                            <mask id="mask-2" fill="white">
                                <use xlink:href="#path-1"></use>
                            </mask>
                            <g id="Clip-4"></g>
                            <path d="M14.5134118,29.1764706 C26.3524706,29.1764706 29.0197647,21.4625882 29.0197647,16.1665882 L29.0197647,0.571294118 L20.2941176,0.571294118 L20.2941176,15.5717647 C20.2941176,19.6847059 17.9872941,21.4823529 14.5134118,21.4823529 C11.0348235,21.4823529 8.72611765,19.6847059 8.72611765,15.5717647 L8.72611765,0.571294118 L-0.000470588235,0.571294118 L-0.000470588235,16.1665882 C-0.000470588235,21.4625882 2.67529412,29.1764706 14.5134118,29.1764706" id="Fill-3" fill="#FFFFFF" mask="url(#mask-2)"></path>
                        </g>
                        <path d="M46.9499294,17.5397647 C35.1089882,17.5397647 32.4369882,25.2517647 32.4369882,30.5477647 L32.4369882,46.1421176 L41.1664,46.1421176 L41.1664,31.1378824 C41.1664,27.0352941 43.4722824,25.2338824 46.9499294,25.2338824 C50.4266353,25.2338824 52.7296941,27.0352941 52.7296941,31.1378824 L52.7296941,46.1421176 L61.4572235,46.1421176 L61.4572235,30.5477647 C61.4572235,25.2517647 58.7880471,17.5397647 46.9499294,17.5397647" id="Fill-6" fill="#FFFFFF"></path>
                        <path d="M120.054776,21.9584 C119.678306,21.4548706 117.453365,17.5395765 110.311718,17.5395765 C103.037365,17.5395765 97.3103059,21.1791059 97.3103059,29.9725176 L97.3103059,46.1419294 L105.841129,46.1419294 L105.841129,29.9574588 C105.841129,27.1226353 107.2896,24.9513412 110.811482,24.9513412 C114.341835,24.9513412 115.7856,27.1226353 115.7856,29.9574588 L115.7856,46.1419294 L124.319247,46.1419294 L124.319247,29.9574588 C124.319247,27.1226353 125.762071,24.9513412 129.2896,24.9513412 C132.817129,24.9513412 134.262776,27.1226353 134.262776,29.9574588 L134.262776,46.1419294 L142.790776,46.1419294 L142.790776,29.9725176 C142.790776,21.1791059 137.060894,17.5395765 129.791247,17.5395765 C122.659953,17.5395765 120.427482,21.4548706 120.054776,21.9584" id="Fill-8" fill="#FFFFFF"></path>
                        <path d="M39.7734588,7.02776471 C39.7734588,11.0051765 42.9461647,14.064 46.9461647,14.064 C50.9085176,14.064 54.0247529,11.0051765 54.0247529,7.02776471 C54.0247529,3.05694118 50.9085176,0 46.9461647,0 C42.9461647,0 39.7734588,3.05694118 39.7734588,7.02776471" id="Fill-10" fill="#FFFFFF"></path>
                        <path d="M72.2045176,7.02776471 C72.2045176,11.0051765 75.3819294,14.064 79.3838118,14.064 C83.3442824,14.064 86.4595765,11.0051765 86.4595765,7.02776471 C86.4595765,3.05694118 83.3442824,0 79.3838118,0 C75.3819294,0 72.2045176,3.05694118 72.2045176,7.02776471" id="Fill-12" fill="#FFFFFF"></path>
                        <path d="M112.875482,7.02776471 C112.875482,11.0051765 116.052894,14.064 120.054776,14.064 C124.015247,14.064 127.130541,11.0051765 127.130541,7.02776471 C127.130541,3.05694118 124.015247,0 120.054776,0 C116.052894,0 112.875482,3.05694118 112.875482,7.02776471" id="Fill-14" fill="#FFFFFF"></path>
                        <path d="M145.438024,22.9211294 C143.7712,22.9211294 142.428141,21.5827765 142.428141,19.9103059 C142.428141,18.2397176 143.7712,16.8834824 145.438024,16.8834824 C147.096376,16.8834824 148.448847,18.2397176 148.448847,19.9103059 C148.448847,21.5827765 147.096376,22.9211294 145.438024,22.9211294 L145.438024,22.9211294 Z M145.438024,17.3192471 C144.007435,17.3192471 142.869553,18.4863059 142.869553,19.9103059 C142.869553,21.3258353 144.007435,22.4778353 145.438024,22.4778353 C146.858259,22.4778353 147.998965,21.3258353 147.998965,19.9103059 C147.998965,18.4863059 146.858259,17.3192471 145.438024,17.3192471 L145.438024,17.3192471 Z M146.118494,21.6166588 L145.038965,20.0477176 L144.936376,20.0477176 L144.936376,21.6166588 L144.452612,21.6166588 L144.452612,18.2058353 C144.680376,18.0947765 144.995671,18.0251294 145.319435,18.0251294 C146.032847,18.0251294 146.534494,18.4270118 146.534494,19.0331294 C146.534494,19.6194824 146.118494,19.9536 145.557553,20.0119529 L146.705788,21.6166588 L146.118494,21.6166588 Z M145.277082,18.4270118 C145.148141,18.4270118 145.029553,18.4524235 144.936376,18.4787765 L144.936376,19.7230118 L145.199906,19.7230118 C145.667671,19.7230118 146.032847,19.5517176 146.032847,19.0331294 C146.032847,18.5465412 145.615906,18.4270118 145.277082,18.4270118 L145.277082,18.4270118 Z" id="Fill-16" fill="#FFFFFF"></path>
                    </g>
                </g>
            </g>
        </g>
    </g>
</svg>

<svg width="149" height="48" viewBox="0 0 149 48" xmlns="http://www.w3.org/2000/svg" xmlns:xlink="http://www.w3.org/1999/xlink"><title>reversed-logo</title><defs><path id="a" d="M0 .571v28.605h29.02V.571H0z"/></defs><g fill="none" fill-rule="evenodd"><path d="M79.387 47.228c11.839 0 14.506-7.714 14.506-13.01V18.623h-8.728v15c0 4.113-2.306 5.911-5.778 5.911-3.48 0-5.783-1.798-5.783-5.91V18.622h-8.728v15.595c0 5.296 2.666 13.01 14.511 13.01" fill="#FFF"/><g transform="translate(0 18.052)"><mask id="b" fill="#fff"><use xlink:href="#a"/></mask><path d="M14.513 29.176c11.84 0 14.507-7.713 14.507-13.01V.572h-8.726v15c0 4.114-2.307 5.911-5.78 5.911-3.48 0-5.788-1.797-5.788-5.91v-15H0v15.595c0 5.296 2.675 13.01 14.513 13.01" fill="#FFF" mask="url(#b)"/></g><path d="M46.95 17.54c-11.841 0-14.513 7.712-14.513 13.008v15.594h8.73V31.138c0-4.103 2.305-5.904 5.783-5.904 3.477 0 5.78 1.801 5.78 5.904v15.004h8.727V30.548c0-5.296-2.669-13.008-14.507-13.008m73.105 4.418c-.377-.503-2.602-4.418-9.743-4.418-7.275 0-13.002 3.64-13.002 12.433v16.169h8.531V29.957c0-2.834 1.449-5.006 4.97-5.006 3.53 0 4.975 2.172 4.975 5.006v16.185h8.533V29.957c0-2.834 1.443-5.006 4.97-5.006 3.528 0 4.974 2.172 4.974 5.006v16.185h8.528v-16.17c0-8.793-5.73-12.432-13-12.432-7.131 0-9.364 3.915-9.736 4.418M39.773 7.028c0 3.977 3.173 7.036 7.173 7.036 3.963 0 7.079-3.059 7.079-7.036C54.025 3.057 50.909 0 46.946 0c-4 0-7.173 3.057-7.173 7.028m32.432 0c0 3.977 3.177 7.036 7.179 7.036 3.96 0 7.076-3.059 7.076-7.036C86.46 3.057 83.344 0 79.384 0c-4.002 0-7.18 3.057-7.18 7.028m40.671 0c0 3.977 3.178 7.036 7.18 7.036 3.96 0 7.076-3.059 7.076-7.036 0-3.971-3.116-7.028-7.076-7.028-4.002 0-7.18 3.057-7.18 7.028m32.563 15.893a3.001 3.001 0 0 1-3.01-3.01 3.016 3.016 0 0 1 3.01-3.028 3.022 3.022 0 0 1 3.01 3.027 3.008 3.008 0 0 1-3.01 3.011zm0-5.602c-1.43 0-2.568 1.167-2.568 2.591a2.562 2.562 0 0 0 2.568 2.568 2.562 2.562 0 0 0 2.561-2.568c0-1.424-1.14-2.59-2.561-2.59zm.68 4.298l-1.079-1.57h-.103v1.57h-.483v-3.411a2.05 2.05 0 0 1 .866-.18c.714 0 1.215.401 1.215 1.007 0 .586-.416.92-.976.979l1.148 1.605h-.588zm-.84-3.19a1.26 1.26 0 0 0-.342.052v1.244h.264c.468 0 .833-.171.833-.69 0-.486-.417-.606-.756-.606z" fill="#FFF"/></g></svg>
